images_sukapura_svg/cmd/32/insertrowsafter.svg

<svg viewBox="0 0 32 32" xmlns="http://www.w3.org/2000/svg" xmlns:xlink="http://www.w3.org/1999/xlink"><linearGradient id="a" gradientUnits="userSpaceOnUse" x1="6" x2="6" y1="30" y2="24"><stop offset="0" stop-color="#007018"/><stop offset="1" stop-color="#32d74b"/></linearGradient><path d="m10 25h18v4h-18z" fill="#32d74b"/><path d="m4 4v4h18v-4zm0 4v1 14h11 4 3v-3-4-7-1z" fill="#fff"/><path d="m3 3v1 4h1v-4h5v4h1v-4h5v4h1v-4h6v4h1v-4-1h-19zm0 5v15c0 .554.446 1 1 1h18c.554 0 1.033514-.447015 1-1v-3-1-1-2-8h-1-6-1-5-1-5zm1 1h5v4h-5zm6 0h5v4h-5zm6 0h6v4h-6zm-12 5h5v4h-5zm6 0h5v2 2h-5zm6 0h6v2 2h-6v-1.716797-.283203zm-12 5h5v4h-5zm6 0h5v.716797 3.283203h-5zm6 0h6v1 3h-6z" fill="#bababa"/><path d="m9 24v1 5h1 5 1 5 1 6 1v-1-4-1h-19zm1 1h5v4h-5zm6 0h5v4h-5zm6 0h6v4h-6z" fill="#007018"/><path d="m3 3v1 4h1v-4h5 1 5 1 6v4h1v-4-1h-19zm0 5v15c0 .554.446 1 1 1h18c.554 0 1.033514-.447015 1-1v-3-1-1-2-8h-1v1 4 1 2 2 1 1 3h-3-3-1-5-1-5v-4-1-4-1-4-1z" fill="#69696e"/><path d="m4.453125 23c-.3310186.01029-.6573936.134039-.9121094.345703-.0006509.000666-.0013.0013-.00195.002l-.5390656.449172v.203125h2.8964844c-.2271029-.576726-.8142654-1.018633-1.4414063-1z" fill="#fff" fill-opacity=".784314"/><path d="m4.484375 24c-.1115776.0033-.2188339.04389-.3046875.115234l-3 2.5c-.24089011.199955-.24089011.569577 0 .769532l3 2.5c.3259264.271805.8209343.039622.8203125-.384766v-1.5h2.5c.2761309-.000028.4999724-.223869.5-.5v-1c-.0000276-.276131-.2238691-.499972-.5-.5h-2.5v-1.5c.0001088-.282349-.2334131-.508794-.515625-.5z" fill="url(#a)"/></svg>

<?xml version="1.0" encoding="UTF-8" standalone="no"?>
<svg
   xmlns:dc="http://purl.org/dc/elements/1.1/"
   xmlns:cc="http://creativecommons.org/ns#"
   xmlns:rdf="http://www.w3.org/1999/02/22-rdf-syntax-ns#"
   xmlns:svg="http://www.w3.org/2000/svg"
   xmlns="http://www.w3.org/2000/svg"
   xmlns:xlink="http://www.w3.org/1999/xlink"
   xmlns:sodipodi="http://sodipodi.sourceforge.net/DTD/sodipodi-0.dtd"
   xmlns:inkscape="http://www.inkscape.org/namespaces/inkscape"
   viewBox="0 0 32 32"
   version="1.1"
   id="svg10"
   sodipodi:docname="insertrowsafter.svg"
   inkscape:export-filename="/home/rizmut/Dokumen/Rizmut/Github/libreoffice-style-sukapura/images_sukapura/cmd/32/insertrowsafter.png"
   inkscape:export-xdpi="96"
   inkscape:export-ydpi="96"
   inkscape:version="0.92.3 (unknown)">
  <metadata
     id="metadata16">
    <rdf:RDF>
      <cc:Work
         rdf:about="">
        <dc:format>image/svg+xml</dc:format>
        <dc:type
           rdf:resource="http://purl.org/dc/dcmitype/StillImage" />
        <dc:title></dc:title>
      </cc:Work>
    </rdf:RDF>
  </metadata>
  <defs
     id="defs14">
    <linearGradient
       inkscape:collect="always"
       id="linearGradient1719">
      <stop
         style="stop-color:#007018;stop-opacity:1;"
         offset="0"
         id="stop1715" />
      <stop
         style="stop-color:#32d74b;stop-opacity:1"
         offset="1"
         id="stop1717" />
    </linearGradient>
    <linearGradient
       inkscape:collect="always"
       xlink:href="#linearGradient1719"
       id="linearGradient923"
       x1="6"
       y1="14"
       x2="6"
       y2="8"
       gradientUnits="userSpaceOnUse"
       gradientTransform="translate(0,16)" />
  </defs>
  <sodipodi:namedview
     pagecolor="#ffffff"
     bordercolor="#666666"
     borderopacity="1"
     objecttolerance="10"
     gridtolerance="10"
     guidetolerance="10"
     inkscape:pageopacity="0"
     inkscape:pageshadow="2"
     inkscape:window-width="1366"
     inkscape:window-height="699"
     id="namedview12"
     showgrid="true"
     inkscape:zoom="10.429825"
     inkscape:cx="7.3015741"
     inkscape:cy="11.276222"
     inkscape:window-x="0"
     inkscape:window-y="0"
     inkscape:window-maximized="1"
     inkscape:current-layer="svg10">
    <inkscape:grid
       type="xygrid"
       id="grid823"
       spacingx="0.5"
       spacingy="0.5"
       empspacing="2" />
  </sodipodi:namedview>
  <rect
     style="opacity:1;fill:#32d74b;fill-opacity:1;stroke:none;stroke-width:1;stroke-linecap:round;stroke-linejoin:round;stroke-miterlimit:4;stroke-dasharray:none;stroke-opacity:0"
     id="rect889"
     width="18"
     height="4"
     x="10"
     y="25" />
  <path
     style="fill:#ffffff;fill-opacity:1"
     d="M 4,4 V 8 H 22 V 4 Z m 0,4 v 1 14 h 11 4 3 V 20 16 9 8 Z"
     id="path2"
     inkscape:connector-curvature="0"
     sodipodi:nodetypes="cccccccccccccccc" />
  <path
     style="fill:#bababa;fill-opacity:1"
     d="M 3,3 V 4 8 H 4 V 4 h 5 v 4 h 1 V 4 h 5 v 4 h 1 V 4 h 6 v 4 h 1 V 4 3 H 4 Z m 0,5 v 15 c 0,0.554 0.446,1 1,1 h 18 c 0.554,0 1.033514,-0.447015 1,-1 V 20 19 18 16 8 H 22 16 15 10 9 4 Z m 1,1 h 5 v 4 H 4 Z m 6,0 h 5 v 4 h -5 z m 6,0 h 6 v 4 H 16 Z M 4,14 h 5 v 4 H 4 Z m 6,0 h 5 v 2 2 h -5 z m 6,0 h 6 v 2 2 H 16 V 16.283203 16 Z M 4,19 h 5 v 4 H 4 Z m 6,0 h 5 V 19.716797 23 h -5 z m 6,0 h 6 v 1 3 h -6 z"
     id="path4"
     inkscape:connector-curvature="0"
     sodipodi:nodetypes="cccccccccccccccccccccssscccccccccccccccccccccccccccccccccccccccccccccccccccccccccccccccc" />
  <path
     id="path887"
     d="m 9,24 v 1 5 h 1 5 1 5 1 6 1 V 29 25 24 H 10 Z m 1,1 h 5 v 4 h -5 z m 6,0 h 5 v 4 h -5 z m 6,0 h 6 v 4 h -6 z"
     inkscape:connector-curvature="0"
     style="fill:#007018;fill-opacity:1" />
  <path
     style="fill:#69696e;fill-opacity:1"
     d="M 3,3 V 4 8 H 4 V 4 h 5 1 5 1 6 v 4 h 1 V 4 3 H 4 Z m 0,5 v 15 c 0,0.554 0.446,1 1,1 h 18 c 0.554,0 1.033514,-0.447015 1,-1 V 20 19 18 16 8 h -1 v 1 4 1 2 2 1 1 3 H 19 16 15 10 9 4 V 19 18 14 13 9 8 Z"
     id="path907"
     inkscape:connector-curvature="0"
     sodipodi:nodetypes="cccccccccccccccccssscccccccccccccccccccccccccccc" />
  <path
     style="fill:#ffffff;fill-opacity:0.78431373;stroke:none;stroke-width:1px;stroke-linecap:butt;stroke-linejoin:miter;stroke-opacity:1"
     d="m 4.453125,23 c -0.3310186,0.01029 -0.6573936,0.134039 -0.9121094,0.345703 -6.509e-4,6.66e-4 -0.0013,0.0013 -0.00195,0.002 L 3,23.796875 V 24 H 5.8964844 C 5.6693815,23.423274 5.082219,22.981367 4.4550781,23 Z"
     id="path925"
     inkscape:connector-curvature="0"
     sodipodi:nodetypes="cccccccc" />
  <path
     style="fill:url(#linearGradient923);fill-opacity:1;stroke:none;stroke-width:1px;stroke-linecap:butt;stroke-linejoin:miter;stroke-opacity:1"
     d="m 4.484375,24 c -0.1115776,0.0033 -0.2188339,0.04389 -0.3046875,0.115234 l -3,2.5 c -0.24089011,0.199955 -0.24089011,0.569577 0,0.769532 l 3,2.5 C 4.5056139,30.156571 5.0006218,29.924388 5,29.5 V 28 h 2.5 c 0.2761309,-2.8e-5 0.4999724,-0.223869 0.5,-0.5 v -1 C 7.9999724,26.223869 7.7761309,26.000028 7.5,26 H 5 V 24.5 C 5.0001088,24.217651 4.7665869,23.991206 4.484375,24 Z"
     id="path912"
     inkscape:connector-curvature="0"
     sodipodi:nodetypes="cccccccccccccc" />
</svg>
